icon/pk/tower-of-babel.svg

<svg viewBox="0 0 48 48" fill="none" xmlns="http://www.w3.org/2000/svg" height="1em" width="1em">
  <path d="M20 14.5V4L28 4.00002V13.5" stroke="black" stroke-width="4" stroke-linejoin="round"/>
  <path d="M14 25V15.4619L34 13V23" stroke="black" stroke-width="4" stroke-linejoin="round"/>
  <path d="M11 35V26L37 23V32" stroke="black" stroke-width="4" stroke-linejoin="round"/>
  <path d="M40 44H8V36L40 32V44Z" fill="#2F88FF" stroke="black" stroke-width="4" stroke-linejoin="round"/>
</svg>

<svg width="48" height="48" fill="none" xmlns="http://www.w3.org/2000/svg"><path d="M20 14.5V4h8v9.5M14 25v-9.538L34 13v10M11 35v-9l26-3v9" stroke="#000" stroke-width="4" stroke-linejoin="round"/><path d="M40 44H8v-8l32-4v12Z" fill="#2F88FF" stroke="#000" stroke-width="4" stroke-linejoin="round"/></svg>
